X:7
T:Alturas de Wallpacayu
R:waynu
Z:id:hn-waynu-7
O:Bolivia
M:2/4
L:1/8
Q:1/4=90
K:Em
[M:3/4] B/BB/ g3f |[M:2/4] e/fee/d/c/ | B/g/f/g/ dg :|
|: [M:3/4] B/BB/ e3d |[M:2/4] BB/AA/G/F/ |1 E/e/B/e/ Be :|
[2 |: E3/EF/G/A/ | B3/BB/d | F/AAA/G :|
|: E/e/B/e/ Be | FA FA | GB GB | FF/AA/G/F/ :|
|: E3/ee/d/c/ | B3/AA/G/F/ :| E/e/B/e/ Be ||

